X:97
T:Waltz
O:No 97 Wm Clarke MS  Feltwell, Norfolk
I:abc2nwc
M:3/4
L:1/8
K:D
f2|f3/2e/2 d2a2|a3/2g/2 f2d'2|d'3/2c'/2 b2a2|a4f2|
g3/2e/2 c2c2|d3/2f/2 A2A2|g3/2e/2 c2c2|d2z2:|
|:d2|ce ge ce|df Af df|ge ce ge|df Af df|
de ge ce|df Af df|ge ce ge|d2z2:|

